src/assets/icons/brands-logos,fancy,twitter.svg

<svg width="48" height="48" viewBox="0 0 48 48" fill="none" xmlns="http://www.w3.org/2000/svg">
<path d="M43 13.4329C41.602 14.0152 40.0993 14.4087 38.5224 14.5857C40.1319 13.6796 41.3683 12.2449 41.9502 10.5353C40.4437 11.3744 38.7753 11.9835 36.9994 12.3118C35.5774 10.8889 33.5513 10 31.3089 10C27.0035 10 23.5126 13.2778 23.5126 17.3209C23.5126 17.8947 23.5816 18.4535 23.7146 18.9893C17.2352 18.684 11.4907 15.7693 7.6455 11.34C6.97442 12.4212 6.58986 13.6787 6.58986 15.0205C6.58986 17.5605 7.96622 19.8013 10.0581 21.1142C8.78018 21.0761 7.57805 20.7468 6.52697 20.1985C6.52608 20.229 6.52608 20.2597 6.52608 20.2906C6.52608 23.8376 9.21345 26.7964 12.7799 27.4694C12.1258 27.6368 11.437 27.7262 10.726 27.7262C10.2237 27.7262 9.73538 27.6801 9.25924 27.5948C10.2514 30.5033 13.1305 32.6199 16.5421 32.6788C13.874 34.6425 10.5125 35.813 6.85972 35.813C6.23044 35.813 5.6099 35.7782 5 35.7106C8.45022 37.788 12.5481 39 16.9508 39C31.2907 39 39.1326 27.8444 39.1326 18.1696C39.1326 17.8522 39.125 17.5366 39.11 17.2224C40.633 16.1904 41.9547 14.9011 42.9999 13.4329H43Z" fill="black"/>
</svg>

<svg xmlns="http://www.w3.org/2000/svg" width="48" height="48" fill="none" viewBox="0 0 48 48">
  <path fill="#000" d="M43 13.433c-1.398.582-2.9.976-4.478 1.153 1.61-.906 2.846-2.341 3.428-4.05A16.234 16.234 0 0137 12.311C35.576 10.889 33.55 10 31.308 10c-4.306 0-7.796 3.278-7.796 7.32 0 .575.069 1.133.202 1.67-6.48-.306-12.224-3.22-16.07-7.65a6.95 6.95 0 00-1.055 3.68c0 2.54 1.376 4.781 3.468 6.094a8.154 8.154 0 01-3.531-.916v.093c0 3.547 2.686 6.505 6.253 7.178a8.278 8.278 0 01-3.52.126c.991 2.908 3.87 5.025 7.282 5.084-2.668 1.963-6.03 3.134-9.682 3.134-.63 0-1.25-.035-1.86-.102C8.45 37.788 12.548 39 16.95 39c14.34 0 22.183-11.156 22.183-20.83 0-.318-.008-.633-.023-.948a15.342 15.342 0 003.89-3.79z"/>
</svg>
